**harmony	**harte	**kern	**silbe	**rhyme	**timestamp	**phrase	**leadinstrument
*M4/4	*M4/4	*ICvox	*	*	*	*	*
*	*	*VRlead*VRresponse	*	*	*	*	*
*	*	*Hstimme	*	*	*	*	*
*D:	*D:	*D:	*	*	*	*	*
1r;	1r	r;	.	.	0	.	r
*	*	*D:	*	*	*	*	*
*	*	*M4/4	*	*	*	*	*
*	*	*clefG2	*	*	*	*	*
=1	=1	=1	=1	=1	=1	=1	=1
*>Letter>A	*>Letter>A	*>Letter>A	*>Letter>A	*>Letter>A	*>Letter>A	*>Letter>A	*>Letter>A
*>Label>Intro	*>Label>Intro	*>Label>Intro	*>Label>Intro	*>Label>Intro	*>Label>Intro	*>Label>Intro	*>Label>Intro
2.CM	C:maj	r;	.	.	1.022	newline	guitar
=1	=1	=1	=1	=1	=1	=1	=1
4GM	G:maj	1r	.	.	2.569	.	guitar
=2	=2	=2	=2	=2	=2	=2	=2
*>Letter>B	*>Letter>B	*>Letter>B	*>Letter>B	*>Letter>B	*>Letter>B	*>Letter>B	*>Letter>B
*>Label>Verse	*>Label>Verse	*>Label>Verse	*>Label>Verse	*>Label>Verse	*>Label>Verse	*>Label>Verse	*>Label>Verse
1DM	D:maj	.	.	.	3.084	newline	voice
=2	=2	=2	=2	=2	=2	=2	=2
.	.	8f#	Blue	.	.	.	.
.	.	8f#	Jean	.	.	.	.
=3	=3	=3	=3	=3	=3	=3	=3
1DM	D:maj	4r	.	.	5.061	.	voice
.	.	4r	.	.	.	.	.
.	.	8r	.	.	.	.	.
.	.	8f#	I	.	.	.	.
=3	=3	=3	=3	=3	=3	=3	=3
.	.	4g	just	.	.	.	.
=4	=4	=4	=4	=4	=4	=4	=4
1DM	D:maj	8f#	met	.	7.038	.	voice
.	.	8f#	a	.	.	.	.
.	.	4e	girl	.	.	.	.
.	.	8d	named	.	.	.	.
.	.	[8f#	Blue	.	.	.	.
=4	=4	=4	=4	=4	=4	=4	=4
.	.	8f#]	_	.	.	.	.
.	.	4f#	Jean	.	.	.	.
=5	=5	=5	=5	=5	=5	=5	=5
1DM	D:maj	.	.	.	9.015	.	voice
.	.	8r	.	.	.	.	.
.	.	2r	.	.	.	.	.
=5	=5	=5	=5	=5	=5	=5	=5
.	.	8f#	Blue	.	.	.	.
.	.	8f#	Jean	.	.	.	.
=6	=6	=6	=6	=6	=6	=6	=6
1DM	D:maj	4r	.	.	10.992	.	voice
.	.	8r	.	.	.	.	.
.	.	8d	She	.	.	.	.
.	.	8d	got	.	.	.	.
.	.	8d	a	.	.	.	.
=6	=6	=6	=6	=6	=6	=6	=6
.	.	8g	cam-	.	.	.	.
.	.	8g	-o-	.	.	.	.
=7	=7	=7	=7	=7	=7	=7	=7
1GM	G:maj	4f#	-flaged	.	12.969	newline	voice
.	.	8e	face	.	.	.	.
.	.	8d	and	.	.	.	.
.	.	8d	no	.	.	.	.
.	.	8d	mon-	.	.	.	.
=7	=7	=7	=7	=7	=7	=7	=7
.	.	8d	-ey	a	.	.	.
.	.	8r	.	.	.	.	.
=8	=8	=8	=8	=8	=8	=8	=8
1GM	G:maj	4r	.	.	14.931	.	voice
.	.	4r	.	.	.	.	.
.	.	8r	.	.	.	.	.
.	.	8g	Re-	.	.	.	.
=8	=8	=8	=8	=8	=8	=8	=8
.	.	8g	-mem-	.	.	.	.
.	.	8g	-ber	.	.	.	.
=9	=9	=9	=9	=9	=9	=9	=9
1GM	G:maj	4r	.	.	16.892	.	voice
.	.	4r	.	.	.	.	.
.	.	8r	.	.	.	.	.
.	.	8d	They	.	.	.	.
=9	=9	=9	=9	=9	=9	=9	=9
.	.	8g	al-	.	.	.	.
.	.	8g	-ways	.	.	.	.
=10	=10	=10	=10	=10	=10	=10	=10
1GM	G:maj	8f#	let	.	18.854	.	voice
.	.	8f#	you	.	.	.	.
.	.	4a	down	.	.	.	.
.	.	8g	when	.	.	.	.
.	.	8g	you	.	.	.	.
=10	=10	=10	=10	=10	=10	=10	=10
.	.	8g	need	A	.	.	.
.	.	8g	'em	.	.	.	.
=11	=11	=11	=11	=11	=11	=11	=11
1GM	G:maj	4r	.	.	20.815	.	voice
.	.	4r	.	.	.	.	.
.	.	8r	.	.	.	.	.
.	.	8g	Oh	.	.	.	.
=11	=11	=11	=11	=11	=11	=11	=11
.	.	8g	Blue	.	.	.	.
.	.	8g	Jean	.	.	.	.
=12	=12	=12	=12	=12	=12	=12	=12
1GM	G:maj	4r	.	.	22.777	.	voice
.	.	4r	.	.	.	.	.
.	.	8r	.	.	.	.	.
.	.	8g	Is	.	.	.	.
=12	=12	=12	=12	=12	=12	=12	=12
.	.	8a	hea-	.	.	.	.
.	.	8g	-ven	.	.	.	.
=13	=13	=13	=13	=13	=13	=13	=13
1DM	D:maj	8g	an-	.	24.739	newline	voice
.	.	8g	-y	.	.	.	.
.	.	8a	sweet-	.	.	.	.
.	.	8g	-er	.	.	.	.
.	.	8g	than	.	.	.	.
.	.	8d	Blue	.	.	.	.
=13	=13	=13	=13	=13	=13	=13	=13
.	.	8f#	Jean	A	.	.	.
.	.	8r	.	.	.	.	.
=14	=14	=14	=14	=14	=14	=14	=14
1DM	D:maj	4r	.	.	26.668	.	voice
.	.	2r	.	.	.	.	.
=14	=14	=14	=14	=14	=14	=14	=14
.	.	2r	.	.	.	.	.
=15	=15	=15	=15	=15	=15	=15	=15
1CM	C:maj	.	.	.	28.598	newline	voice
.	.	8r	.	.	.	.	.
.	.	8~B	She	.	.	.	.
.	.	8~B	got	.	.	.	.
.	.	8~B	a	.	.	.	.
=15	=15	=15	=15	=15	=15	=15	=15
.	.	8~B	po-	.	.	.	.
.	.	8~B	-lice	.	.	.	.
=16	=16	=16	=16	=16	=16	=16	=16
1DM	D:maj	8~B	bike	.	30.529	.	voice
.	.	8r	.	.	.	.	.
.	.	2r	.	.	.	.	.
=16	=16	=16	=16	=16	=16	=16	=16
.	.	2r	.	.	.	.	.
=17	=17	=17	=17	=17	=17	=17	=17
2.CM	C:maj	.	.	.	32.461	.	voice
.	.	8r	.	.	.	.	.
.	.	8~B	She	.	.	.	.
.	.	8~B	got	.	.	.	.
.	.	8~B	a	.	.	.	.
=17	=17	=17	=17	=17	=17	=17	=17
4GM	G:maj	8~B	turned	.	33.909	.	voice
.	.	8~B	up	.	.	.	.
=18	=18	=18	=18	=18	=18	=18	=18
1AM	A:maj	8~B	nose	.	34.392	.	voice
.	.	8r	.	.	.	.	.
.	.	2r	.	.	.	.	.
=18	=18	=18	=18	=18	=18	=18	=18
.	.	1r	.	.	.	.	.
=19	=19	=19	=19	=19	=19	=19	=19
1AM	A:maj	.	.	.	36.323	.	voice
=19	=19	=19	=19	=19	=19	=19	=19
.	.	8r	.	.	.	.	.
.	.	8e	Some-	.	.	.	.
=20	=20	=20	=20	=20	=20	=20	=20
*>Letter>C	*>Letter>C	*>Letter>C	*>Letter>C	*>Letter>C	*>Letter>C	*>Letter>C	*>Letter>C
*>Label>Chorus	*>Label>Chorus	*>Label>Chorus	*>Label>Chorus	*>Label>Chorus	*>Label>Chorus	*>Label>Chorus	*>Label>Chorus
1F#m	F#:min	8f#	-times	.	38.254	newline	voice
.	.	8g	I	.	.	.	.
.	.	4a	feel	.	.	.	.
.	.	4f#	like	.	.	.	.
=20	=20	=20	=20	=20	=20	=20	=20
.	.	[1A	(Oh	.	.	.	.
=21	=21	=21	=21	=21	=21	=21	=21
1F#mm	F#:min11	.	.	.	40.178	.	voice
=21	=21	=21	=21	=21	=21	=21	=21
.	.	8A]	_	.	.	.	.
.	.	8A	the	.	.	.	.
=22	=22	=22	=22	=22	=22	=22	=22
1AM	A:maj	4A	whole	.	42.102	.	voice
.	.	4B	hu-	.	.	.	.
.	.	8A	-man	.	.	.	.
.	.	[8A	race)	.	.	.	.
=22	=22	=22	=22	=22	=22	=22	=22
.	.	4A]	_	.	.	.	.
=23	=23	=23	=23	=23	=23	=23	=23
1AM	A:maj	4r	.	.	44.026	.	voice
.	.	2r	.	.	.	.	.
=23	=23	=23	=23	=23	=23	=23	=23
.	.	8r	.	.	.	.	.
.	.	8e	Jazz-	.	.	.	.
=24	=24	=24	=24	=24	=24	=24	=24
1F#m	F#:min	8f#	-in'	.	45.95	newline	voice
.	.	8g	for	.	.	.	.
.	.	4a	Blue	.	.	.	.
.	.	4f#	Jean	A	.	.	.
=24	=24	=24	=24	=24	=24	=24	=24
.	.	[1A	(Oh	.	.	.	.
=25	=25	=25	=25	=25	=25	=25	=25
1F#mm	F#:min11	.	.	.	47.846	.	voice
=25	=25	=25	=25	=25	=25	=25	=25
.	.	8A]	_	.	.	.	.
.	.	8A	and	.	.	.	.
=26	=26	=26	=26	=26	=26	=26	=26
1AM	A:maj	8A	when	.	49.742	.	voice
.	.	8A	my	.	.	.	.
.	.	4B	Blue	.	.	.	.
.	.	4A	Jean's	.	.	.	.
=26	=26	=26	=26	=26	=26	=26	=26
.	.	4A	blue)	.	.	.	.
=27	=27	=27	=27	=27	=27	=27	=27
1AM	A:maj	4r	.	.	51.637	.	voice
.	.	2r	.	.	.	.	.
=27	=27	=27	=27	=27	=27	=27	=27
.	.	8r	.	.	.	.	.
.	.	8e	Blue	.	.	.	.
=28	=28	=28	=28	=28	=28	=28	=28
1F#m	F#:min	8f#	Jean	.	53.533	newline	voice
.	.	8g	can	.	.	.	.
.	.	4a	send	.	.	.	.
.	.	4f#	me	A	.	.	.
=28	=28	=28	=28	=28	=28	=28	=28
.	.	[1A	(Oh	.	.	.	.
=29	=29	=29	=29	=29	=29	=29	=29
1F#mm	F#:min11	.	.	.	55.443	.	voice
=29	=29	=29	=29	=29	=29	=29	=29
.	.	8A]	_	.	.	.	.
.	.	8A	some-	.	.	.	.
=30	=30	=30	=30	=30	=30	=30	=30
1AM	A:maj	8A	-bod-	.	57.352	.	voice
.	.	8A	-y	.	.	.	.
.	.	4B	send	.	.	.	.
.	.	4A	me)	.	.	.	.
=30	=30	=30	=30	=30	=30	=30	=30
.	.	1r	.	.	.	.	.
=31	=31	=31	=31	=31	=31	=31	=31
1AM	A:maj	.	.	.	59.262	.	voice
=31	=31	=31	=31	=31	=31	=31	=31
.	.	8r	.	.	.	.	.
.	.	8e	Some-	.	.	.	.
=32	=32	=32	=32	=32	=32	=32	=32
1F#m	F#:min	8f#	-bod-	.	61.171	newline	voice
.	.	8g	-y	.	.	.	.
.	.	4a	send	.	.	.	.
.	.	4f#	me	.	.	.	.
=32	=32	=32	=32	=32	=32	=32	=32
.	.	[1A	(Oh	.	.	.	.
=33	=33	=33	=33	=33	=33	=33	=33
1F#mm	F#:min11	.	.	.	63.07	.	voice
=33	=33	=33	=33	=33	=33	=33	=33
.	.	8A]	_	.	.	.	.
.	.	8A	some-	.	.	.	.
=34	=34	=34	=34	=34	=34	=34	=34
*>Letter>A	*>Letter>A	*>Letter>A	*>Letter>A	*>Letter>A	*>Letter>A	*>Letter>A	*>Letter>A
*>Label>Trans	*>Label>Trans	*>Label>Trans	*>Label>Trans	*>Label>Trans	*>Label>Trans	*>Label>Trans	*>Label>Trans
2.CM	C:maj	8A	-bod-	.	64.968	newline	guitar
.	.	8A	-y	.	.	.	.
.	.	4B	send	.	.	.	.
.	.	4A	me)	.	.	.	.
=34	=34	=34	=34	=34	=34	=34	=34
4GM	G:maj	1r	.	.	66.421	.	guitar
=35	=35	=35	=35	=35	=35	=35	=35
*>Letter>B	*>Letter>B	*>Letter>B	*>Letter>B	*>Letter>B	*>Letter>B	*>Letter>B	*>Letter>B
*>Label>Verse	*>Label>Verse	*>Label>Verse	*>Label>Verse	*>Label>Verse	*>Label>Verse	*>Label>Verse	*>Label>Verse
1DM	D:maj	.	.	.	66.905	newline	voice
=35	=35	=35	=35	=35	=35	=35	=35
.	.	8f#	One	.	.	.	.
.	.	8f#	day	.	.	.	.
=36	=36	=36	=36	=36	=36	=36	=36
1DM	D:maj	4r	.	.	68.84	.	voice
.	.	4r	.	.	.	.	.
.	.	8r	.	.	.	.	.
.	.	8f#	I'm	.	.	.	.
=36	=36	=36	=36	=36	=36	=36	=36
.	.	8g	gonn-	.	.	.	.
.	.	8g	-a	.	.	.	.
=37	=37	=37	=37	=37	=37	=37	=37
1DM	D:maj	8f#	write	.	70.775	.	voice
.	.	8f#	a	.	.	.	.
.	.	8e	po-	.	.	.	.
.	.	8d	-em	.	.	.	.
.	.	8d	in	.	.	.	.
.	.	8d	a	.	.	.	.
=37	=37	=37	=37	=37	=37	=37	=37
.	.	8f#	lett-	(B	.	.	.
.	.	8f#	-er	b)	.	.	.
=38	=38	=38	=38	=38	=38	=38	=38
1DM	D:maj	8r	.	.	72.71	.	voice
.	.	8r	.	.	.	.	.
.	.	2r	.	.	.	.	.
=38	=38	=38	=38	=38	=38	=38	=38
.	.	8f#	One	.	.	.	.
.	.	8f#	day	.	.	.	.
=39	=39	=39	=39	=39	=39	=39	=39
1DM	D:maj	4r	.	.	74.645	.	voice
.	.	8r	.	.	.	.	.
.	.	4r	.	.	.	.	.
.	.	8f#	I'm	.	.	.	.
=39	=39	=39	=39	=39	=39	=39	=39
.	.	8g	gonn-	.	.	.	.
.	.	8g	-a	.	.	.	.
=40	=40	=40	=40	=40	=40	=40	=40
1GM	G:maj	8f#	get	.	76.58	newline	voice
.	.	8f#	that	.	.	.	.
.	.	8e	fac-	.	.	.	.
.	.	8d	-ult-	.	.	.	.
.	.	8d	-y	.	.	.	.
.	.	8B	to-	.	.	.	.
=40	=40	=40	=40	=40	=40	=40	=40
.	.	8B	-geth-	(B	.	.	.
.	.	8d	-er	b)	.	.	.
=41	=41	=41	=41	=41	=41	=41	=41
1GM	G:maj	4r	.	.	78.509	.	voice
.	.	4r	.	.	.	.	.
.	.	8r	.	.	.	.	.
.	.	8g	Re-	.	.	.	.
=41	=41	=41	=41	=41	=41	=41	=41
.	.	8g	-mem-	.	.	.	.
.	.	8g	-ber	.	.	.	.
=42	=42	=42	=42	=42	=42	=42	=42
1GM	G:maj	4r	.	.	80.438	.	voice
.	.	4r	.	.	.	.	.
.	.	8r	.	.	.	.	.
.	.	8g	that	.	.	.	.
=42	=42	=42	=42	=42	=42	=42	=42
.	.	8a	eve-	.	.	.	.
.	.	8g	-ry-	.	.	.	.
=43	=43	=43	=43	=43	=43	=43	=43
1GM	G:maj	8g	-bod-	.	82.368	.	voice
.	.	8g	-y	.	.	.	.
.	.	8a	has	.	.	.	.
.	.	8g	to	.	.	.	.
.	.	8g	wait	.	.	.	.
.	.	8g	in	.	.	.	.
=43	=43	=43	=43	=43	=43	=43	=43
.	.	8g	line	C	.	.	.
.	.	8b	_	.	.	.	.
=44	=44	=44	=44	=44	=44	=44	=44
1GM	G:maj	4r	.	.	84.297	.	voice
.	.	4r	.	.	.	.	.
.	.	8r	.	.	.	.	.
.	.	8g	Oh	.	.	.	.
=44	=44	=44	=44	=44	=44	=44	=44
.	.	8g	Blue	.	.	.	.
.	.	8g	Jean	.	.	.	.
=45	=45	=45	=45	=45	=45	=45	=45
1GM	G:maj	4r	.	.	86.226	.	voice
.	.	4r	.	.	.	.	.
.	.	8r	.	.	.	.	.
.	.	8g	Oh	.	.	.	.
=45	=45	=45	=45	=45	=45	=45	=45
.	.	16a	look	.	.	.	.
.	.	8a	out	.	.	.	.
.	.	8.g	world	.	.	.	.
=46	=46	=46	=46	=46	=46	=46	=46
1DM	D:maj	.	.	.	88.155	newline	voice
.	.	8G	you	.	.	.	.
.	.	16A	know	.	.	.	.
.	.	8G	_	.	.	.	.
.	.	8.g	I've	.	.	.	.
.	.	8d	got	.	.	.	.
=46	=46	=46	=46	=46	=46	=46	=46
.	.	8f#	mine	C	.	.	.
.	.	8r	.	.	.	.	.
=47	=47	=47	=47	=47	=47	=47	=47
1DM	D:maj	4r	.	.	90.041	.	voice
.	.	2r	.	.	.	.	.
=47	=47	=47	=47	=47	=47	=47	=47
.	.	2r	.	.	.	.	.
=48	=48	=48	=48	=48	=48	=48	=48
1CM	C:maj	.	.	.	91.926	newline	voice
.	.	8r	.	.	.	.	.
.	.	8~B	She's	.	.	.	.
.	.	4~B	got	.	.	.	.
=48	=48	=48	=48	=48	=48	=48	=48
.	.	8~B	Lat-	.	.	.	.
.	.	8~B	-in	.	.	.	.
=49	=49	=49	=49	=49	=49	=49	=49
1DM	D:maj	8~B	roots	.	93.852	.	voice
.	.	8r	.	.	.	.	.
.	.	2r	.	.	.	.	.
=49	=49	=49	=49	=49	=49	=49	=49
.	.	2r	.	.	.	.	.
=50	=50	=50	=50	=50	=50	=50	=50
2.CM	C:maj	.	.	.	95.778	.	voice
.	.	8r	.	.	.	.	.
.	.	8~B	She's	.	.	.	.
.	.	4~B	got	.	.	.	.
=50	=50	=50	=50	=50	=50	=50	=50
4GM	G:maj	8~B	eve-	.	97.223	.	voice
.	.	8~B	-ry-	.	.	.	.
=51	=51	=51	=51	=51	=51	=51	=51
1AM	A:maj	8~B	-thing	A	97.704	.	voice
.	.	8r	.	.	.	.	.
.	.	2r	.	.	.	.	.
=51	=51	=51	=51	=51	=51	=51	=51
.	.	1r	.	.	.	.	.
=52	=52	=52	=52	=52	=52	=52	=52
1AM	A:maj	.	.	.	99.63	.	voice
=52	=52	=52	=52	=52	=52	=52	=52
.	.	8r	.	.	.	.	.
.	.	8e	Some-	.	.	.	.
=53	=53	=53	=53	=53	=53	=53	=53
*>Letter>C	*>Letter>C	*>Letter>C	*>Letter>C	*>Letter>C	*>Letter>C	*>Letter>C	*>Letter>C
*>Label>Chorus	*>Label>Chorus	*>Label>Chorus	*>Label>Chorus	*>Label>Chorus	*>Label>Chorus	*>Label>Chorus	*>Label>Chorus
1F#m	F#:min	8f#	-times	.	101.556	newline	voice
.	.	8g	I	.	.	.	.
.	.	4a	feel	.	.	.	.
.	.	4f#	like	.	.	.	.
=53	=53	=53	=53	=53	=53	=53	=53
.	.	[1A	(Oh	.	.	.	.
=54	=54	=54	=54	=54	=54	=54	=54
1F#mm	F#:min11	.	.	.	103.465	.	voice
=54	=54	=54	=54	=54	=54	=54	=54
.	.	8A]	_	.	.	.	.
.	.	8A	the	.	.	.	.
=55	=55	=55	=55	=55	=55	=55	=55
1AM	A:maj	4A	whole	.	105.374	.	voice
.	.	4B	hu-	.	.	.	.
.	.	8A	-man	.	.	.	.
.	.	[8A	race)	.	.	.	.
=55	=55	=55	=55	=55	=55	=55	=55
.	.	4A]	_	.	.	.	.
=56	=56	=56	=56	=56	=56	=56	=56
1AM	A:maj	4r	.	.	107.284	.	voice
.	.	2r	.	.	.	.	.
=56	=56	=56	=56	=56	=56	=56	=56
.	.	8r	.	.	.	.	.
.	.	8e	Jazz-	.	.	.	.
=57	=57	=57	=57	=57	=57	=57	=57
1F#m	F#:min	8f#	-in'	.	109.193	newline	voice
.	.	8g	for	.	.	.	.
.	.	4a	Blue	.	.	.	.
.	.	4f#	Jean	A	.	.	.
=57	=57	=57	=57	=57	=57	=57	=57
.	.	[1A	(Oh	.	.	.	.
=58	=58	=58	=58	=58	=58	=58	=58
1F#mm	F#:min11	.	.	.	111.081	.	voice
=58	=58	=58	=58	=58	=58	=58	=58
.	.	8A]	_	.	.	.	.
.	.	8A	and	.	.	.	.
=59	=59	=59	=59	=59	=59	=59	=59
1AM	A:maj	8A	when	.	112.969	.	voice
.	.	8A	my	.	.	.	.
.	.	4B	Blue	.	.	.	.
.	.	4A	Jean's	.	.	.	.
=59	=59	=59	=59	=59	=59	=59	=59
.	.	4A	blue)	.	.	.	.
=60	=60	=60	=60	=60	=60	=60	=60
1AM	A:maj	4r	.	.	114.858	.	voice
.	.	2r	.	.	.	.	.
=60	=60	=60	=60	=60	=60	=60	=60
.	.	8r	.	.	.	.	.
.	.	8e	Blue	.	.	.	.
=61	=61	=61	=61	=61	=61	=61	=61
1F#m	F#:min	8f#	Jean	.	116.746	newline	voice
.	.	8g	can	.	.	.	.
.	.	4cc#	send	.	.	.	.
.	.	4b	me	A	.	.	.
=61	=61	=61	=61	=61	=61	=61	=61
.	.	[1A	(Oh	.	.	.	.
=62	=62	=62	=62	=62	=62	=62	=62
1F#mm	F#:min11	.	.	.	118.623	.	voice
=62	=62	=62	=62	=62	=62	=62	=62
.	.	8A]	_	.	.	.	.
.	.	8A	some-	.	.	.	.
=63	=63	=63	=63	=63	=63	=63	=63
1AM	A:maj	8A	-bod-	.	120.5	.	voice
.	.	8A	-y	.	.	.	.
.	.	4B	send	.	.	.	.
.	.	4A	me)	.	.	.	.
=63	=63	=63	=63	=63	=63	=63	=63
.	.	1r	.	.	.	.	.
=64	=64	=64	=64	=64	=64	=64	=64
1AM	A:maj	.	.	.	122.377	.	voice
=64	=64	=64	=64	=64	=64	=64	=64
.	.	8r	.	.	.	.	.
.	.	8e	Some-	.	.	.	.
=65	=65	=65	=65	=65	=65	=65	=65
1F#m	F#:min	8f#	-bod-	.	124.254	newline	voice
.	.	8g	-y	.	.	.	.
.	.	4a	send	.	.	.	.
.	.	4f#	me	.	.	.	.
=65	=65	=65	=65	=65	=65	=65	=65
.	.	[1A	(Oh	.	.	.	.
=66	=66	=66	=66	=66	=66	=66	=66
1F#mm	F#:min11	.	.	.	126.13	.	voice
=66	=66	=66	=66	=66	=66	=66	=66
.	.	8A]	_	.	.	.	.
.	.	8A	some-	.	.	.	.
=67	=67	=67	=67	=67	=67	=67	=67
*>Letter>A	*>Letter>A	*>Letter>A	*>Letter>A	*>Letter>A	*>Letter>A	*>Letter>A	*>Letter>A
*>Label>Trans	*>Label>Trans	*>Label>Trans	*>Label>Trans	*>Label>Trans	*>Label>Trans	*>Label>Trans	*>Label>Trans
2.CM	C:maj	8A	-bod-	.	128.005	newline	guitar
.	.	8A	-y	.	.	.	.
.	.	4B	send	.	.	.	.
.	.	4A	me)	.	.	.	.
=67	=67	=67	=67	=67	=67	=67	=67
4GM	G:maj	1r	.	.	129.454	.	guitar
=68	=68	=68	=68	=68	=68	=68	=68
*>Letter>D	*>Letter>D	*>Letter>D	*>Letter>D	*>Letter>D	*>Letter>D	*>Letter>D	*>Letter>D
*>Label>Interlude	*>Label>Interlude	*>Label>Interlude	*>Label>Interlude	*>Label>Interlude	*>Label>Interlude	*>Label>Interlude	*>Label>Interlude
1DM	D:maj	.	.	.	129.938	newline	guitar
=68	=68	=68	=68	=68	=68	=68	=68
.	.	1r	.	.	.	.	.
=69	=69	=69	=69	=69	=69	=69	=69
1DM	D:maj	.	.	.	131.819	.	guitar
=69	=69	=69	=69	=69	=69	=69	=69
.	.	1r	.	.	.	.	.
=70	=70	=70	=70	=70	=70	=70	=70
1DM	D:maj	.	.	.	133.701	.	guitar
=70	=70	=70	=70	=70	=70	=70	=70
.	.	1r	.	.	.	.	.
=71	=71	=71	=71	=71	=71	=71	=71
1DM	D:maj	.	.	.	135.582	.	guitar
=71	=71	=71	=71	=71	=71	=71	=71
.	.	8r	.	.	.	.	.
.	.	8d	Some-	.	.	.	.
=72	=72	=72	=72	=72	=72	=72	=72
*>Letter>C2	*>Letter>C2	*>Letter>C2	*>Letter>C2	*>Letter>C2	*>Letter>C2	*>Letter>C2	*>Letter>C2
*>Label>Chorus	*>Label>Chorus	*>Label>Chorus	*>Label>Chorus	*>Label>Chorus	*>Label>Chorus	*>Label>Chorus	*>Label>Chorus
1F#m	F#:min	8f#	-times	.	137.464	newline	voice
.	.	8g	I	.	.	.	.
.	.	4a	feel	.	.	.	.
.	.	4f#	like	.	.	.	.
=72	=72	=72	=72	=72	=72	=72	=72
.	.	[1A	(Oh	.	.	.	.
=73	=73	=73	=73	=73	=73	=73	=73
1F#mm	F#:min11	.	.	.	139.365	.	voice
=73	=73	=73	=73	=73	=73	=73	=73
.	.	8A]	_	.	.	.	.
.	.	8A	the	.	.	.	.
=74	=74	=74	=74	=74	=74	=74	=74
1AM	A:maj	4A	whole	.	141.266	.	voice
.	.	4B	hu-	.	.	.	.
.	.	8A	-man	.	.	.	.
.	.	[8A	race)	.	.	.	.
=74	=74	=74	=74	=74	=74	=74	=74
.	.	4A]	_	.	.	.	.
=75	=75	=75	=75	=75	=75	=75	=75
1AM	A:maj	4r	.	.	143.167	.	voice
.	.	2r	.	.	.	.	.
=75	=75	=75	=75	=75	=75	=75	=75
.	.	8r	.	.	.	.	.
.	.	8e	Jazz-	.	.	.	.
=76	=76	=76	=76	=76	=76	=76	=76
1F#m	F#:min	8f#	-in'	.	145.068	newline	voice
.	.	8g	for	.	.	.	.
.	.	4a	Blue	.	.	.	.
.	.	4f#	Jean	A	.	.	.
=76	=76	=76	=76	=76	=76	=76	=76
.	.	[1A	(Oh	.	.	.	.
=77	=77	=77	=77	=77	=77	=77	=77
1F#mm	F#:min11	.	.	.	146.951	.	voice
=77	=77	=77	=77	=77	=77	=77	=77
.	.	8A]	_	.	.	.	.
.	.	8A	and	.	.	.	.
=78	=78	=78	=78	=78	=78	=78	=78
1AM	A:maj	8A	when	.	148.834	.	voice
.	.	8A	my	.	.	.	.
.	.	4B	Blue	.	.	.	.
.	.	4A	Jean's	.	.	.	.
=78	=78	=78	=78	=78	=78	=78	=78
.	.	4A	blue)	.	.	.	.
=79	=79	=79	=79	=79	=79	=79	=79
1AM	A:maj	4r	.	.	150.717	.	voice
.	.	2r	.	.	.	.	.
=79	=79	=79	=79	=79	=79	=79	=79
.	.	8r	.	.	.	.	.
.	.	8e	Blue	.	.	.	.
=80	=80	=80	=80	=80	=80	=80	=80
1F#m	F#:min	8f#	Jean	.	152.599	newline	voice
.	.	8g	can	.	.	.	.
.	.	4a	send	.	.	.	.
.	.	4f#	me	A	.	.	.
=80	=80	=80	=80	=80	=80	=80	=80
.	.	[1A	(Oh	.	.	.	.
=81	=81	=81	=81	=81	=81	=81	=81
1F#mm	F#:min11	.	.	.	154.489	.	voice
=81	=81	=81	=81	=81	=81	=81	=81
.	.	8A]	_	.	.	.	.
.	.	8A	some-	.	.	.	.
=82	=82	=82	=82	=82	=82	=82	=82
1AM	A:maj	8A	-bod-	.	156.379	.	voice
.	.	8A	-y	.	.	.	.
.	.	4B	send	.	.	.	.
.	.	4A	me)	.	.	.	.
=82	=82	=82	=82	=82	=82	=82	=82
.	.	1r	.	.	.	.	.
=83	=83	=83	=83	=83	=83	=83	=83
1AM	A:maj	.	.	.	158.269	.	voice
=83	=83	=83	=83	=83	=83	=83	=83
.	.	8r	.	.	.	.	.
.	.	8e	Some-	.	.	.	.
=84	=84	=84	=84	=84	=84	=84	=84
1F#m	F#:min	8f#	-bod-	.	160.159	newline	voice
.	.	8g	-y	.	.	.	.
.	.	4cc#	send	.	.	.	.
.	.	4b	me	.	.	.	.
=84	=84	=84	=84	=84	=84	=84	=84
.	.	[1A	(Oh	.	.	.	.
=85	=85	=85	=85	=85	=85	=85	=85
1F#mm	F#:min11	.	.	.	162.025	.	voice
=85	=85	=85	=85	=85	=85	=85	=85
.	.	8A]	_	.	.	.	.
.	.	8A	some-	.	.	.	.
=86	=86	=86	=86	=86	=86	=86	=86
1AM	A:maj	8A	-bod-	.	163.89	.	voice
.	.	8A	-y	.	.	.	.
.	.	4B	send	.	.	.	.
.	.	4A	me)	.	.	.	.
=86	=86	=86	=86	=86	=86	=86	=86
.	.	1r	.	.	.	.	.
=87	=87	=87	=87	=87	=87	=87	=87
1AM	A:maj	.	.	.	165.756	.	voice
=87	=87	=87	=87	=87	=87	=87	=87
.	.	8r	.	.	.	.	.
.	.	8c#	Some-	.	.	.	.
=88	=88	=88	=88	=88	=88	=88	=88
1F#m	F#:min	8d	-bod-	.	167.622	newline	voice
.	.	8e	-y	.	.	.	.
.	.	8r	.	.	.	.	.
.	.	8e	Some-	.	.	.	.
.	.	8f#	-bod-	.	.	.	.
.	.	8c#	-y	.	.	.	.
=88	=88	=88	=88	=88	=88	=88	=88
.	.	[1A	(Oh	.	.	.	.
=89	=89	=89	=89	=89	=89	=89	=89
1F#mm	F#:min11	.	.	.	169.508	.	voice
=89	=89	=89	=89	=89	=89	=89	=89
.	.	8A]	_	.	.	.	.
.	.	8A	some-	.	.	.	.
=90	=90	=90	=90	=90	=90	=90	=90
1AM	A:maj	8A	-bod-	.	171.394	.	voice
.	.	8A	-y	.	.	.	.
.	.	4B	send	.	.	.	.
.	.	4A	me)	.	.	.	.
=90	=90	=90	=90	=90	=90	=90	=90
.	.	1r	.	.	.	.	.
=91	=91	=91	=91	=91	=91	=91	=91
1AM	A:maj	.	.	.	173.28	.	voice
=91	=91	=91	=91	=91	=91	=91	=91
.	.	8r	.	.	.	.	.
.	.	8e	Some-	.	.	.	.
=92	=92	=92	=92	=92	=92	=92	=92
1F#m	F#:min	8f#	-bod-	.	175.166	newline	voice
.	.	8g	-y	.	.	.	.
.	.	4a	send	.	.	.	.
.	.	4f#	me	.	.	.	.
=92	=92	=92	=92	=92	=92	=92	=92
.	.	[1A	(Oh	.	.	.	.
=93	=93	=93	=93	=93	=93	=93	=93
1F#mm	F#:min11	.	.	.	177.055	.	voice
=93	=93	=93	=93	=93	=93	=93	=93
.	.	8A]	_	.	.	.	.
.	.	8A	some-	.	.	.	.
=94	=94	=94	=94	=94	=94	=94	=94
*>Letter>A2	*>Letter>A2	*>Letter>A2	*>Letter>A2	*>Letter>A2	*>Letter>A2	*>Letter>A2	*>Letter>A2
*>Label>Outro	*>Label>Outro	*>Label>Outro	*>Label>Outro	*>Label>Outro	*>Label>Outro	*>Label>Outro	*>Label>Outro
2.CM	C:maj	8A	-bod-	.	178.945	newline	guitar
.	.	8A	-y	.	.	.	.
.	.	4B	send	.	.	.	.
.	.	4A	me)	.	.	.	.
=94	=94	=94	=94	=94	=94	=94	=94
4GM	G:maj	4r	.	.	180.386	.	guitar
=95	=95	=95	=95	=95	=95	=95	=95
2.CM	C:maj	4r	.	.	180.866	.	guitar
.	.	2r	.	.	.	.	.
=95	=95	=95	=95	=95	=95	=95	=95
4AM	A:5	1r	.	.	182.308	.	guitar
=96	=96	=96	=96	=96	=96	=96	=96
1Em	E:5	.	.	.	182.788	newline	guitar
=96	=96	=96	=96	=96	=96	=96	=96
.	.	1r	.	.	.	.	.
1r;	1r	.	.	.	189.589	.	r
.	.	r;	.	.	.	.	.
1r;	1r	r;	.	.	192.249	.	r
*-	*-	*-	*-	*-	*-	*-	*-
!!!BillboardChartDate: 1984/11/10
!!!BillboardPeak: 8
!!!BillboardWeeksOnChart: 18
!!!COC: David Bowie
!!!ENC: Nathaniel Condit-Schultz
!!!EST: Awating manual error checking and editing.
!!!OTL: Blue Jean
!!!RDF**chordsym: original McGill chord annotation + (implied pitch class set, with bass pitch in first position)
!!!RDF**harmony: **recip + pitch class of root + harmonic quality
!!!RDF**leadinstrument: original McGill primary instrumentation annotation
!!!RDF**phrase: newline = linebreak in original McGill transcription
!!!RDF**timestamp: McGill audio timestamp in seconds
!!!RDT: 2017/01/12/
!!!SampleActualRank: 8
!!!SampleID#: 0818
!!!SampleTargetRank: 8
!!!MBID: ef2d05cf-062b-49a1-85db-1f12868ad724
